X: 864
T: Gönlümde Açmadan Solan...
C: Şekip Ayhan Özışık
O: Turkey
F: http://compmusic.upf.edu/node/140
N: hicaz--sarki--duyek--gonlumde_acmadan--sekip_ayhan_ozisik
N: makam= hicaz
N: form= sarki
N: usul= duyek = 8/4
M: 8/4
L: 1/16
K: C _7/8B ^f ^c 
Q: 1/4=192
%%MIDI tuningsystem comma53
A2 B4 A2 ^G6 ^1/4F2  | A16  | A2 B4 A2 ^G6 ^1/4F2  | B16  | \
w:  ARANAĞME  |   |   |   | 
z2 d2 c2 B2 d8  | c16  | z2 B2 A2 ^G2 B8  | 
w:   |   |   | 
A16  | z2 d2 c2 B2 d8  | c16  | z2 B2 A2 ^G2 B8  | A16  | \
w:   |   |   |   |   | 
A2 B4 A2 ^G6 ^1/4F2  | A16  | A2 B4 A2 ^G6 ^1/4F2  | 
w:  ARANAĞME  |   |   | 
B16  | z2 d2 c2 B2 d8  | c16  | z2 B2 A2 ^G2 B8  | A16  | \
w:   |   |   |   |   | 
z2 d2 c2 B2 d8  | c16  | z2 B2 A2 ^G2 B8  | 
w:   |   |   | 
A16  | A12 B2 ^G2  | A16  | z2 e4 d2 c6 B2  | \
w:   |  Gön lüm  |  de   |  aç ma dan  so  | 
A8 .e4 .c4  | A8 B2 A2 d4  | z2 d4 d2 d4 e4  | 
w:  lan  bir  gül  |  sün   SAZ  |  Her  za man  gam  | 
d2 c14  | z2 ^1/4f4 e2 d4 c4  | d16  | z2 ^1/4f4 e2 d4 c4  | d16  | \
w:  lı yım   |  her  za man  üz  |  gün    |  SAZ  |   | 
A12 B2 ^G2  | A16  | z2 e4 d2 c6 B2  | 
w:  Gön lüm  |  de   |  aç ma dan  so  | 
A8 .e4 .c4  | A8 B2 A2 d4  | z2 d4 d2 d4 e4  | \
w:  lan  bir  gül  |  sün   SAZ  |  Her  za man  gam  | 
d2 c14  | z2 ^1/4f4 e2 d4 c4  | d16  | z2 ^1/4f4 e2 d4 c4  | 
w:  lı yım   |  her  za man  üz  |  gün    |  SAZ  | 
d16  | z2 a4 b2 a4 ^g2 ^1/4f2  | a16  | \
w:   |  Bek le rim  yo lu  |  nu   | 
g4 ^1/4f4 e2 d4 e2  | c16  | g4 ^1/4f4 e2 d4 e2  | c16  | \
w:  ay lar  bo yun  |  ca    |  SAZ  |   | 
A2 B4 A2 B6 A2  | 
w:  Ye ter  ki  gel  ba  | 
e16  | z2 d2 c2 B2 d8  | c16  | z2 B2 A2 ^G2 B8  | A16  | \
w:  na   |  se ne de  bir   |  gün    |  se ne de  bir   |  gün    | 
z2 a4 b2 a4 ^g2 ^1/4f2  | a16  | g4 ^1/4f4 e2 d4 e2  | 
w:  Bek le rim  yo lu  |  nu   |  ay lar  bo yun  | 
c16  | g4 ^1/4f4 e2 d4 e2  | c16  | A2 B4 A2 B6 A2  | e16  | \
w:  ca    |  SAZ  |   |  Ye ter  ki  gel  ba  |  na   | 
z2 d2 c2 B2 d8  | c16  | z2 B2 A2 ^G2 B8  | 
w:  se ne de  bir   |  gün    |  se ne de  bir   | 
A16  | A2 B4 A2 ^G6 ^1/4F2  | A16  | A2 B4 A2 ^G6 ^1/4F2  | B16  | \
w:  gün    |  ARANAĞME  |   |   |   | 
z2 d2 c2 B2 d8  | c16  | z2 B2 A2 ^G2 B8  | 
w:   |   |   | 
A16  | z2 d2 c2 B2 d8  | c16  | z2 B2 A2 ^G2 B8  | A16  | \
w:   |   |   |   |   | 
A2 B4 A2 ^G6 ^1/4F2  | A16  | A2 B4 A2 ^G6 ^1/4F2  | 
w:  ARANAĞME  |   |   | 
B16  | z2 d2 c2 B2 d8  | c16  | z2 B2 A2 ^G2 B8  | A16  | \
w:   |   |   |   |   | 
z2 d2 c2 B2 d8  | c16  | z2 B2 A2 ^G2 B8  | 
w:   |   |   | 
A16  | e2 e6 c4 B4  | A2 e14  | z2 ^1/4f6 e4 d2 c2  | g16  | \
w:   |  A ğar sın  saç  |  la rım   |  sol sun  ya na  |  ğım    | 
z2 b2 a2 g2 ^1/4f4 d4  | ^1/4f16  | z2 ^1/4f6 e4 d2 c2  | 
w:  A dı nı  an mak  |  tan   |  yan sın  du da  | 
d16  | z2 ^1/4f6 e4 d2 c2  | d16  | e2 e6 c4 B4  | \
w:  ğım    |  SAZ  |   |  A ğar sın  saç  | 
A2 e14  | z2 ^1/4f6 e4 d2 c2  | g16  | z2 b2 a2 g2 ^1/4f4 d4  | 
w:  la rım   |  sol sun  ya na  |  ğım    |  A dı nı  an mak  | 
^1/4f16  | z2 ^1/4f6 e4 d2 c2  | d16  | \
w:  tan   |  yan sın  du da  |  ğım    | 
z2 ^1/4f6 e4 d2 c2  | d16  | a2 b6 a4 ^g2 ^1/4f2  | a16  | \
w:  SAZ  |   |  Bu  aş ka  ca nı  |  mı   | 
g4 ^1/4f4 e4 d4  | 
w:  a da ya ca  | 
c16  | g4 ^1/4f4 e4 d4  | c16  | A2 B4 A2 B6 A2  | e16  | \
w:  ğım    |  SAZ  |   |  Ye ter  ki  gel  ba  |  na   | 
z2 d2 c2 B2 d8  | c16  | z2 B2 A2 ^G2 B8  | 
w:  se ne de  bir   |  gün    |  se ne de  bir   | 
A16  | a2 b6 a4 ^g2 ^1/4f2  | a16  | g4 ^1/4f4 e4 d4  | c16  | \
w:  gün    |  Bu  aş ka  ca nı  |  mı   |  a da ya ca  |  ğım    | 
g4 ^1/4f4 e4 d4  | c16  | A2 B4 A2 B6 A2  | 
w:  SAZ  |   |  Ye ter  ki  gel  ba  | 
e16  | z2 d2 c2 B2 d8  | c16  | z2 B2 A2 ^G2 B8  | A16  | \
w:  na   |  se ne de  bir   |  gün    |  se ne de  bir   |  gün    | 
z2 d2 c2 B2 d8  | c16  | z2 B2 A2 ^G2 B8  | 
w:  Se ne de  bir   |  gün   |  se ne de  bir   | 
A16  | |


